Obsidian-SemiLight/actions/22s/kstars_cbound.svg

<svg viewBox="0 0 22 22" xmlns="http://www.w3.org/2000/svg"><path d="m8 3a5 5 0 0 1 -.0839844.8847656 5.0000172 5.0000172 0 0 1 -.1113281.484375 5.0000172 5.0000172 0 0 1 0 .0019532 5.0000172 5.0000172 0 0 1 -.1621094.4746093 5.0000172 5.0000172 0 0 1 0 .0019531 5 5 0 0 1 -2.5976562 2.7070313 5.0000172 5.0000172 0 0 1 -.4550781.1796875 5.0000172 5.0000172 0 0 1 -.0097657.0039062 5 5 0 0 1 -.0117187.0039063 5.0000172 5.0000172 0 0 1 -.4550782.1269531 5.0000172 5.0000172 0 0 1 -.015625.0039063 5 5 0 0 1 -1.0976562.1269531v1a6.0000172 6.0000172 0 0 0 1.4140625-.1757812l.9511719 2.8515622c-.7657214.211543-1.5612491.322429-2.3652344.324219v.662109c1.6837004.000136 3.3324573-.414285 4.8007812-1.1875l.6699219 1.052735.5371094.841797v.001953a12 12 0 0 0 .84375-.535156l-.0039063-.00586c2.0738638-1.446606 3.6932488-3.539168 4.5273438-6.0585936l2.154297.6152344.740234.2480468c.474817-1.4752358.727963-3.080585.730469-4.6347656h-1c-.003712 1.11636-.154553 2.2622536-.425781 3.359375l-7.6933596-2.1992188a6.0000172 6.0000172 0 0 0 .1191406-1.1601562zm.609375 2.1230469 4.808594 1.375c-.764533 2.2793617-2.230619 4.1752911-4.105469 5.4921871l-.6484375-1.019531-.4238281-.667969a9 9 0 0 1 -.6992188.451172c-.3946505.232116-.8076421.42458-1.2304687.59375l-.9453125-2.8359372a6.0000172 6.0000172 0 0 0 3.2441406-3.3886719zm3.513672 5.6660151a12 12 0 0 1 -.681641.732422l1.451172 1.347657c-2.614001 2.622965-6.1622764 4.127787-9.892578 4.130859v1c4.0072239-.006459 7.816243-1.631624 10.617188-4.458984l2.208984 2.052734a18 18 0 0 1 -4.636719 3.40625h2.019531a19 19 0 0 0 3.345704-2.728516l.009765.007813a19 19 0 0 0 .681641-.732422l-.00586-.003906a19 19 0 0 0 1.759766-2.296875v-2.039063a18 18 0 0 1 -2.507812 3.640625l-2.179688-2.02539-.726562-.673828z" fill="#4d4d4d"/></svg>

<svg xmlns="http://www.w3.org/2000/svg" viewBox="0 0 22 22">
  <defs id="defs3051">
    <style type="text/css" id="current-color-scheme">
      .ColorScheme-Text {
        color:#4d4d4d;
      }
      </style>
  </defs>
 <path 
     style="fill:currentColor;fill-opacity:1;stroke:none" 
     d="M 8 3 A 5 5 0 0 1 7.9160156 3.8847656 A 5.0000172 5.0000172 0 0 1 7.8046875 4.3691406 A 5.0000172 5.0000172 0 0 1 7.8046875 4.3710938 A 5.0000172 5.0000172 0 0 1 7.6425781 4.8457031 A 5.0000172 5.0000172 0 0 1 7.6425781 4.8476562 A 5 5 0 0 1 5.0449219 7.5546875 A 5.0000172 5.0000172 0 0 1 4.5898438 7.734375 A 5.0000172 5.0000172 0 0 1 4.5800781 7.7382812 A 5 5 0 0 1 4.5683594 7.7421875 A 5.0000172 5.0000172 0 0 1 4.1132812 7.8691406 A 5.0000172 5.0000172 0 0 1 4.0976562 7.8730469 A 5 5 0 0 1 3 8 L 3 9 A 6.0000172 6.0000172 0 0 0 4.4140625 8.8242188 L 5.3652344 11.675781 C 4.599513 11.887324 3.8039853 11.99821 3 12 L 3 12.662109 C 4.6837004 12.662245 6.3324573 12.247824 7.8007812 11.474609 L 8.4707031 12.527344 L 9.0078125 13.369141 L 9.0078125 13.371094 A 12 12 0 0 0 9.8515625 12.835938 L 9.8476562 12.830078 C 11.92152 11.383472 13.540905 9.29091 14.375 6.7714844 L 16.529297 7.3867188 L 17.269531 7.6347656 C 17.744348 6.1595298 17.997494 4.5541806 18 3 L 17 3 C 16.996288 4.11636 16.845447 5.2622536 16.574219 6.359375 L 8.8808594 4.1601562 A 6.0000172 6.0000172 0 0 0 9 3 L 8 3 z M 8.609375 5.1230469 L 13.417969 6.4980469 C 12.653436 8.7774086 11.18735 10.673338 9.3125 11.990234 L 8.6640625 10.970703 L 8.2402344 10.302734 A 9 9 0 0 1 7.5410156 10.753906 C 7.1463651 10.986022 6.7333735 11.178486 6.3105469 11.347656 L 5.3652344 8.5117188 A 6.0000172 6.0000172 0 0 0 8.609375 5.1230469 z M 12.123047 10.789062 A 12 12 0 0 1 11.441406 11.521484 L 12.892578 12.869141 C 10.278577 15.492106 6.7303016 16.996928 3 17 L 3 18 C 7.0072239 17.993541 10.816243 16.368376 13.617188 13.541016 L 15.826172 15.59375 A 18 18 0 0 1 11.189453 19 L 13.208984 19 A 19 19 0 0 0 16.554688 16.271484 L 16.564453 16.279297 A 19 19 0 0 0 17.246094 15.546875 L 17.240234 15.542969 A 19 19 0 0 0 19 13.246094 L 19 11.207031 A 18 18 0 0 1 16.492188 14.847656 L 14.3125 12.822266 L 13.585938 12.148438 L 12.123047 10.789062 z "
     class="ColorScheme-Text"
     />
</svg>
